!!!ONR: No. 8
!! Transcription 8
!!!OTL: La viudita
!!!SINGER: A group of girls
!!!PLACE South America, Colombia, Evitar
!!!DATE 1964 November 8
!! From George List, "Music and Poetry in a Colombian Village:
!! A Tri-Cultural Heritage"
!! Bloomington, Indiana: Indiana University Press, 1983
**kern
*clefG2
*k[]
*M2/4
*MM144
*>verse 1
{8d
=
4g
8b
8dd
=
4cc
8a
8cc
=
4b
8g
8e
=
8d}
8r
8r
{8d
=
4cc
8a
8cc
=
4b
8g
8g
=
4a
8b
8a
=
8g}
8r
8r
=
*>verse 2
{8d
=
4g
8b
8dd
=
4cc
8a
8cc
=
4b
8g
8e
=
8d}
8r
8r
{8d
=
4cc
8cc
8cc
=
4b
8b
8b
=
4a
8b
8a
=
8g}
8r
8r
=
*>verse 3
{8g
=
8g
8g
8b
8dd
=
8cc
4a
8cc
=
4b
16g
16g
8e
=
8d}
8r
8r
{8d
=
4cc
8a
8cc
=
4b
8g
8g
=
4a
8b
8a
=
8g}
8r
8r
*>verse 4
{8d
=
4g
8g
8b
=
4g
8g
8d
=
4g
8g
8b
=
8a}
8r
8r
{8a
=
4cc
8b
8a
=
4dd
8b
8g
=
4a
8f#
8d
=
4g}
8r
*>verse 5
{8d
=
4g
8g
8b
=
4g
8r
8d
=
4g
16g
16g
8dd
=
8a}
8r
8r
{16a
16a
=
4cc
8e
8e
=
4e
8d
8f#
=
4a
8e
8f#
*M3/8
=
8a}
8r
*>verse 6
{8d
*M2/4
=
4g
8g
8b
=
4g
8g
8d
=
4g
8g
8b
=
8a
4a}
{8a
=
4cc
8b
8a
=
4dd
8b
8g
=
4a
8f#
8d
=
8g
8g}
8r
==
*-
